X: 38720
T: Streamstown, The
R: jig
M: 6/8
K: Dmajor
fef d2 B|AFA d2 e|fef def|gfg a2 g|
fef d2 B|AFA d2 e|faf ede|fdd d2 e:|
aba fdf|aba fdf|gfg e=ce|gfg bag|
aba fdf|aba fdf|gfg ece|fdd d2 e:|

